images/facebook.svg

<svg width="12" height="20" viewBox="0 0 12 20" fill="none" xmlns="http://www.w3.org/2000/svg">
<path d="M10.6525 11.256L11.2072 7.63887H7.73568V5.28314C7.71154 5.01301 7.74841 4.74091 7.84359 4.48695C7.93877 4.23299 8.08982 4.00367 8.28556 3.81595C8.4813 3.62823 8.71673 3.4869 8.97445 3.40242C9.23216 3.31794 9.50557 3.29247 9.77446 3.32789H11.3528V0.256885C10.4263 0.107301 9.49005 0.0257038 8.55162 0.0127459C7.90592 -0.0364188 7.25731 0.0570303 6.65175 0.286471C6.04619 0.515912 5.49851 0.875728 5.0475 1.34042C4.5965 1.80512 4.25322 2.36332 4.04198 2.97547C3.83075 3.58762 3.75673 4.23873 3.82518 4.88267V7.63887H0.647095V11.256H3.82518V20H7.73568V11.256H10.6525Z" fill="#446381"/>
</svg>

<svg width="12" height="20" fill="none" xmlns="http://www.w3.org/2000/svg"><path d="M10.652 11.256l.555-3.617H7.736V5.283a1.81 1.81 0 012.038-1.955h1.579V.257A19.242 19.242 0 008.552.013a4.416 4.416 0 00-4.727 4.87v2.756H.647v3.617h3.178V20h3.91v-8.744h2.917z" fill="#446381"/></svg>
